ui/StatusQ/src/assets/img/icons/pencil-outline.svg

<svg fill="none" height="14" viewBox="0 0 14 14" width="14" xmlns="http://www.w3.org/2000/svg"><path clip-rule="evenodd" d="m9.79136 1.16389c.84074-.840753 2.20384-.840751 3.04464 0 .8407.84074.8407 2.20387 0 3.04461l-7.8345 7.8345c-.28479.2848-.63745.4923-1.02471.6029l-2.80509.8015c-.174908.0499-.363156.0012-.49178-.1275-.128625-.1286-.177405-.3168-.127433-.4917l.801453-2.8051c.11065-.38729.31816-.73996.60294-1.02474zm2.33624.70835c-.4495-.44954-1.1784-.44954-1.6279 0l-7.83446 7.83447c-.16441.1644-.28421.36799-.34808.59159-.24137.8447.53966 1.6258 1.38443 1.3844.22356-.0639.42715-.1837.59156-.3481l7.83445-7.83445c.4496-.44953.4496-1.17838 0-1.62791z" fill="#4360df" fill-rule="evenodd"/></svg>

<svg width="14" height="14" viewBox="0 0 14 14" fill="none" xmlns="http://www.w3.org/2000/svg">
<path fill-rule="evenodd" clip-rule="evenodd" d="M9.79136 1.16389C10.6321 0.323137 11.9952 0.323139 12.836 1.16389C13.6767 2.00463 13.6767 3.36776 12.836 4.2085L5.0015 12.043C4.71671 12.3278 4.36405 12.5353 3.97679 12.6459L1.1717 13.4474C0.996792 13.4973 0.808544 13.4486 0.67992 13.3199C0.551295 13.1913 0.502515 13.0031 0.552487 12.8282L1.35394 10.0231C1.46459 9.63581 1.6721 9.28314 1.95688 8.99836L9.79136 1.16389ZM12.1276 1.87224C11.6781 1.4227 10.9492 1.4227 10.4997 1.87224L2.66524 9.70671C2.50083 9.87111 2.38103 10.0747 2.31716 10.2983C2.07579 11.143 2.85682 11.9241 3.70159 11.6827C3.92515 11.6188 4.12874 11.499 4.29315 11.3346L12.1276 3.50015C12.5772 3.05062 12.5772 2.32177 12.1276 1.87224Z" fill="#4360DF"/>
</svg>
